img/kubernetes.svg

<svg width="24" height="24" viewBox="0 0 24 24" fill="none" xmlns="http://www.w3.org/2000/svg">
<path d="M14.002 13.385C13.792 13.514 13.7 13.758 13.792 13.967L14.794 16.424C15.761 15.8071 16.4945 14.885 16.878 13.804L14.282 13.385H14.002ZM10.254 13.723C10.2241 13.6278 10.1655 13.5442 10.0861 13.4837C10.0068 13.4232 9.9107 13.3887 9.81099 13.385H9.71799L7.13399 13.816C7.52164 14.8884 8.25473 15.8016 9.21799 16.412L10.208 14.002V13.967C10.254 13.909 10.254 13.805 10.254 13.723ZM12.384 14.666C12.328 14.5644 12.2342 14.4891 12.123 14.4563C12.0118 14.4235 11.8921 14.436 11.79 14.491C11.709 14.55 11.65 14.585 11.616 14.666H11.604L10.335 16.959C11.2471 17.267 12.2269 17.3155 13.165 17.099C13.327 17.064 13.502 17.018 13.665 16.959L12.395 14.666H12.384ZM16.401 9.346L14.445 11.057L14.456 11.092C14.4116 11.1289 14.3751 11.1744 14.3486 11.2257C14.3222 11.277 14.3063 11.3332 14.302 11.3907C14.2977 11.4483 14.3051 11.5062 14.3236 11.5609C14.3422 11.6155 14.3715 11.6659 14.41 11.709C14.468 11.779 14.538 11.825 14.62 11.849L14.631 11.86L17.157 12.582C17.239 11.452 16.994 10.312 16.401 9.346ZM12.78 9.532C12.792 9.776 12.99 9.962 13.234 9.951C13.3191 9.95124 13.403 9.93137 13.479 9.893H13.49L15.62 8.368C14.8084 7.57154 13.7574 7.06414 12.629 6.924L12.78 9.532ZM10.522 9.892C10.6167 9.95641 10.7326 9.98156 10.8455 9.96216C10.9583 9.94276 11.0593 9.88032 11.127 9.788C11.1814 9.71765 11.2138 9.63274 11.22 9.544H11.232L11.372 6.924C11.197 6.947 11.022 6.982 10.836 7.017C9.90234 7.22488 9.04665 7.69294 8.36799 8.367L10.51 9.893H10.521L10.522 9.892ZM9.36799 11.86C9.42365 11.8458 9.47587 11.8205 9.52151 11.7857C9.56714 11.7508 9.60526 11.7071 9.63356 11.6571C9.66187 11.6071 9.67977 11.5519 9.68621 11.4949C9.69264 11.4378 9.68746 11.38 9.67099 11.325C9.67099 11.232 9.61199 11.162 9.54299 11.104V11.092L7.58799 9.31C6.9859 10.2926 6.72768 11.4475 6.85399 12.593L9.36899 11.871V11.859L9.36799 11.86ZM11.278 12.629L11.999 12.978L12.721 12.628L12.895 11.848L12.395 11.232H11.591L11.091 11.849L11.278 12.629ZM23.955 14.165L21.895 5.236C21.8439 5.00013 21.7397 4.77902 21.5903 4.58945C21.441 4.39989 21.2504 4.24686 21.033 4.142L12.687 0.147999C12.4692 0.0501789 12.2332 -0.000396729 11.9945 -0.000396729C11.7558 -0.000396729 11.5198 0.0501789 11.302 0.147999L2.96599 4.142C2.53499 4.352 2.20899 4.747 2.10399 5.236L0.0439917 14.166C-0.0140535 14.391 -0.0140535 14.627 0.0439917 14.852C0.0549917 14.922 0.0789917 14.992 0.101992 15.062C0.136992 15.167 0.194992 15.283 0.252992 15.376C0.287992 15.423 0.310992 15.469 0.357992 15.504L6.12099 22.7C6.14399 22.7 6.17899 22.747 6.17899 22.77C6.29499 22.875 6.39999 22.956 6.50499 23.026C6.64499 23.119 6.80799 23.189 6.97099 23.224C7.09899 23.282 7.23799 23.282 7.34299 23.282H16.797C16.878 23.282 16.959 23.247 17.029 23.224C17.088 23.212 17.146 23.189 17.192 23.177C17.239 23.154 17.274 23.142 17.32 23.119C17.379 23.096 17.437 23.061 17.495 23.026C17.635 22.933 17.763 22.816 17.879 22.7L18.054 22.467L23.642 15.505C23.758 15.365 23.84 15.215 23.898 15.063C23.9228 14.9946 23.9421 14.9244 23.956 14.853C24.0143 14.6277 24.0143 14.3913 23.956 14.166L23.955 14.165ZM15.305 17.646C15.329 17.716 15.352 17.786 15.387 17.844C15.3612 17.8896 15.3448 17.9399 15.3388 17.992C15.3328 18.044 15.3373 18.0967 15.352 18.147C15.492 18.427 15.62 18.683 15.794 18.939C15.887 19.067 15.981 19.206 16.074 19.334C16.074 19.369 16.109 19.428 16.12 19.474C16.1538 19.5305 16.1762 19.5931 16.1857 19.6583C16.1953 19.7234 16.1919 19.7898 16.1757 19.8536C16.1596 19.9175 16.1309 19.9775 16.0915 20.0302C16.0521 20.083 16.0026 20.1274 15.946 20.161C15.8896 20.1955 15.8269 20.2183 15.7616 20.2281C15.6963 20.238 15.6296 20.2347 15.5656 20.2184C15.5016 20.2021 15.4415 20.1731 15.3888 20.1332C15.3361 20.0933 15.292 20.0432 15.259 19.986C15.247 19.951 15.235 19.928 15.224 19.893C15.201 19.858 15.177 19.788 15.154 19.788C15.0998 19.6313 15.053 19.4721 15.014 19.311C14.91 19.021 14.816 18.741 14.665 18.473C14.6046 18.392 14.518 18.3344 14.42 18.31L14.327 18.124C12.8369 18.6846 11.1932 18.6803 9.70599 18.112L9.58899 18.322C9.50617 18.3324 9.42878 18.3688 9.36799 18.426C9.20499 18.706 9.08799 18.996 8.98399 19.323C8.94643 19.4806 8.89968 19.6359 8.84399 19.788C8.82099 19.788 8.79699 19.87 8.77399 19.905C8.72705 20.0272 8.63414 20.1262 8.51514 20.1808C8.39614 20.2353 8.2605 20.2411 8.13726 20.197C8.01402 20.1528 7.91297 20.0621 7.85573 19.9444C7.79849 19.8267 7.78961 19.6912 7.83099 19.567C7.84299 19.532 7.86599 19.509 7.87799 19.474C7.92399 19.439 7.92399 19.381 7.92399 19.346C8.02899 19.206 8.11099 19.078 8.20399 18.939C8.38999 18.694 8.54099 18.415 8.65799 18.135C8.66928 18.0369 8.65729 17.9376 8.62299 17.845L8.70399 17.635C7.34061 16.8245 6.31871 15.5456 5.82899 14.037L5.59599 14.072C5.52039 14.009 5.42628 13.9725 5.32799 13.968C5.02318 14.0301 4.72363 14.1157 4.43199 14.224C4.30399 14.294 4.15199 14.352 4.00099 14.398C3.95163 14.4135 3.90115 14.4252 3.84999 14.433C3.72475 14.4716 3.58944 14.4606 3.47213 14.4021C3.35483 14.3436 3.26454 14.2423 3.21999 14.119C3.19886 14.0555 3.19057 13.9885 3.19562 13.9218C3.20066 13.8551 3.21894 13.79 3.24937 13.7305C3.27981 13.6709 3.3218 13.618 3.3729 13.5748C3.424 13.5316 3.48318 13.4991 3.54699 13.479C3.56999 13.479 3.60499 13.467 3.63999 13.467V13.455H3.65199L3.77999 13.432C3.94299 13.385 4.10599 13.385 4.25699 13.385C4.55999 13.385 4.86199 13.315 5.15299 13.245C5.2433 13.1902 5.31937 13.1148 5.37499 13.025L5.59499 12.966C5.35216 11.3918 5.70981 9.78385 6.59699 8.461L6.43399 8.321C6.43325 8.21712 6.4008 8.11594 6.34099 8.031C6.11 7.8326 5.86053 7.65679 5.59599 7.506C5.45599 7.436 5.31599 7.355 5.17599 7.262C5.15399 7.238 5.10599 7.203 5.08399 7.18L5.07199 7.169C4.83899 6.982 4.78099 6.679 4.94399 6.435C4.99511 6.37809 5.05798 6.33296 5.12825 6.30275C5.19852 6.27253 5.27452 6.25795 5.35099 6.26C5.47886 6.27136 5.60056 6.32004 5.70099 6.4L5.80499 6.482C5.92199 6.586 6.02699 6.715 6.13099 6.831C6.34099 7.052 6.56199 7.261 6.80699 7.436C6.90055 7.48235 7.00731 7.49472 7.10899 7.471L7.28399 7.599C8.16001 6.6663 9.29558 6.0177 10.544 5.737C10.834 5.667 11.149 5.62 11.452 5.597L11.463 5.387C11.5432 5.31667 11.6001 5.22352 11.626 5.12C11.6361 4.81982 11.6167 4.51938 11.568 4.223C11.5325 4.06603 11.5091 3.90656 11.498 3.746V3.606C11.4861 3.47208 11.5269 3.33881 11.6117 3.23445C11.6964 3.1301 11.8185 3.06286 11.952 3.047C12.0171 3.03993 12.0829 3.0458 12.1458 3.06426C12.2086 3.08273 12.2671 3.11343 12.3181 3.15459C12.369 3.19576 12.4113 3.24658 12.4425 3.30414C12.4737 3.3617 12.4933 3.42486 12.5 3.49V3.746C12.4889 3.90656 12.4655 4.06603 12.43 4.223C12.383 4.514 12.36 4.817 12.372 5.12C12.3903 5.22355 12.4489 5.31562 12.535 5.376L12.546 5.596C14.1265 5.73477 15.6014 6.44768 16.692 7.6L16.878 7.46C16.9799 7.48427 17.087 7.47225 17.181 7.426C17.4273 7.24908 17.6536 7.04589 17.856 6.82C17.961 6.704 18.066 6.587 18.182 6.471C18.217 6.448 18.263 6.401 18.298 6.401C18.496 6.191 18.811 6.191 18.985 6.401C19.206 6.587 19.195 6.901 18.985 7.1C18.985 7.123 18.95 7.146 18.915 7.17C18.7562 7.29623 18.5846 7.4055 18.403 7.496C18.1367 7.64332 17.887 7.81864 17.658 8.019C17.6234 8.05635 17.5973 8.10065 17.5812 8.14894C17.5652 8.19723 17.5596 8.2484 17.565 8.299L17.379 8.462C18.2727 9.7782 18.6383 11.3826 18.403 12.956L18.624 13.014C18.6733 13.1062 18.7512 13.1799 18.846 13.224C19.136 13.304 19.439 13.351 19.742 13.386H20.219C20.254 13.421 20.312 13.433 20.359 13.445C20.4249 13.4536 20.4885 13.4752 20.5459 13.5086C20.6034 13.5421 20.6536 13.5866 20.6937 13.6397C20.7337 13.6928 20.7628 13.7533 20.7791 13.8178C20.7955 13.8822 20.7989 13.9492 20.789 14.015C20.731 14.283 20.51 14.481 20.231 14.445C20.196 14.435 20.149 14.435 20.149 14.422V14.411C20.0939 14.4108 20.039 14.4031 19.986 14.388C19.8408 14.3438 19.7005 14.2852 19.567 14.213C19.2786 14.0977 18.978 14.0155 18.671 13.968C18.566 13.968 18.473 13.968 18.403 14.062C18.3292 14.0513 18.2555 14.0396 18.182 14.027C17.705 15.552 16.657 16.832 15.306 17.647L15.305 17.646Z" fill="#326CE5"/>
</svg>

<svg xmlns="http://www.w3.org/2000/svg" width="24" height="24" fill="none" viewBox="0 0 24 24">
  <g clip-path="url(#a)">
    <path fill="#326CE5" d="M14.27 13.385h-.268c-.21.129-.302.373-.21.582l1.002 2.457a5.15 5.15 0 0 0 2.084-2.62l-2.596-.419h-.012Zm-4.016.338a.483.483 0 0 0-.443-.338h-.093l-2.584.431a5.143 5.143 0 0 0 2.084 2.596l.99-2.41v-.035c.046-.058.046-.162.046-.244Zm2.13.943a.44.44 0 0 0-.594-.175c-.081.059-.14.094-.174.175h-.012l-1.269 2.293a5.195 5.195 0 0 0 2.83.14c.162-.035.337-.081.5-.14l-1.27-2.293h-.01Zm4.017-5.32-1.956 1.711.011.035a.43.43 0 0 0-.046.617c.058.07.128.116.21.14l.011.011 2.526.722c.082-1.13-.163-2.27-.756-3.236Zm-3.621.186c.012.244.21.43.454.419a.54.54 0 0 0 .245-.058h.011l2.13-1.525a5.182 5.182 0 0 0-2.991-1.444l.151 2.608Zm-2.258.36a.442.442 0 0 0 .605-.104.45.45 0 0 0 .093-.244h.012l.14-2.62c-.175.023-.35.058-.536.093a5.064 5.064 0 0 0-2.468 1.35l2.142 1.526h.011ZM9.368 11.86a.426.426 0 0 0 .303-.535c0-.093-.059-.163-.128-.221v-.012L7.588 9.31a5.194 5.194 0 0 0-.734 3.283l2.515-.722v-.012Zm1.91.769.721.349.722-.35.174-.78-.5-.616h-.804l-.5.617.186.78Zm12.677 1.536-2.06-8.929a1.588 1.588 0 0 0-.862-1.094L12.687.148a1.69 1.69 0 0 0-1.385 0L2.966 4.142c-.431.21-.757.605-.862 1.094l-2.06 8.93a1.373 1.373 0 0 0 0 .686c.011.07.035.14.058.21.035.105.093.221.151.314.035.047.058.093.105.128L6.121 22.7c.023 0 .058.047.058.07.116.105.221.186.326.256.14.093.303.163.466.198.128.058.267.058.372.058h9.454c.081 0 .162-.035.232-.058.059-.012.117-.035.163-.047.047-.023.082-.035.128-.058.059-.023.117-.058.175-.093.14-.093.268-.21.384-.326l.175-.233 5.588-6.962c.116-.14.198-.29.256-.442a1.4 1.4 0 0 0 .058-.21 1.37 1.37 0 0 0 0-.687Zm-8.65 3.481c.024.07.047.14.082.198a.392.392 0 0 0-.035.303c.14.28.268.536.442.792.093.128.187.267.28.395 0 .035.035.094.046.14a.5.5 0 0 1-.174.687.495.495 0 0 1-.687-.175c-.012-.035-.024-.058-.035-.093-.023-.035-.047-.105-.07-.105a5.205 5.205 0 0 1-.14-.477c-.104-.29-.198-.57-.349-.838a.437.437 0 0 0-.245-.163l-.093-.186a6.517 6.517 0 0 1-4.621-.012l-.117.21a.394.394 0 0 0-.221.104c-.163.28-.28.57-.384.897a4.155 4.155 0 0 1-.14.465c-.023 0-.047.082-.07.117a.501.501 0 0 1-.943-.338c.012-.035.035-.058.047-.093.046-.035.046-.093.046-.128.105-.14.187-.268.28-.407.186-.245.337-.524.454-.804a.628.628 0 0 0-.035-.29l.081-.21a6.532 6.532 0 0 1-2.875-3.598l-.233.035a.451.451 0 0 0-.268-.104 6.044 6.044 0 0 0-.896.256c-.128.07-.28.128-.431.174a1.01 1.01 0 0 1-.151.035.51.51 0 0 1-.63-.314.504.504 0 0 1 .327-.64c.023 0 .058-.012.093-.012v-.012h.012l.128-.023c.163-.047.326-.047.477-.047.303 0 .605-.07.896-.14a.67.67 0 0 0 .222-.22l.22-.059a6.35 6.35 0 0 1 1.002-4.505l-.163-.14a.51.51 0 0 0-.093-.29 4.765 4.765 0 0 0-.745-.525c-.14-.07-.28-.151-.42-.244-.022-.024-.07-.059-.092-.082l-.012-.011c-.233-.187-.291-.49-.128-.734a.528.528 0 0 1 .407-.175.655.655 0 0 1 .35.14l.104.082c.117.104.222.233.326.349.21.221.431.43.676.605a.45.45 0 0 0 .302.035l.175.128a6.398 6.398 0 0 1 3.26-1.862c.29-.07.605-.117.908-.14l.011-.21a.524.524 0 0 0 .163-.267 4.583 4.583 0 0 0-.058-.897 3.14 3.14 0 0 1-.07-.477v-.14a.517.517 0 0 1 .454-.559.497.497 0 0 1 .548.443v.256a3.14 3.14 0 0 1-.07.477c-.047.291-.07.594-.058.897a.397.397 0 0 0 .163.256l.011.22A6.49 6.49 0 0 1 16.692 7.6l.186-.14a.45.45 0 0 0 .303-.034 4.18 4.18 0 0 0 .675-.606c.105-.116.21-.233.326-.349.035-.023.081-.07.116-.07.198-.21.513-.21.687 0 .221.186.21.5 0 .699 0 .023-.035.046-.07.07a2.907 2.907 0 0 1-.512.326 4.274 4.274 0 0 0-.745.523.357.357 0 0 0-.093.28l-.186.163a6.333 6.333 0 0 1 1.024 4.494l.221.058a.483.483 0 0 0 .222.21c.29.08.593.127.896.162h.477c.035.035.093.047.14.059a.5.5 0 0 1 .43.57c-.058.268-.279.466-.558.43-.035-.01-.082-.01-.082-.023v-.011a.605.605 0 0 1-.163-.023 2.27 2.27 0 0 1-.419-.175 4.101 4.101 0 0 0-.896-.245c-.105 0-.198 0-.268.094a8.755 8.755 0 0 1-.221-.035c-.477 1.525-1.525 2.805-2.876 3.62Z"/>
  </g>
  <defs>
    <clipPath id="a">
      <path fill="#fff" d="M0 0h24v24H0z"/>
    </clipPath>
  </defs>
</svg>
